static/images/cohorts1.svg

<svg height="86" viewBox="0 0 86 86" width="86" xmlns="http://www.w3.org/2000/svg" xmlns:xlink="http://www.w3.org/1999/xlink"><linearGradient id="a" x1="0%" x2="149.460671%" y1="0%" y2="71.875%"><stop offset="0" stop-color="#00eaf8"/><stop offset="1" stop-color="#6d42ef"/></linearGradient><g fill="none" fill-rule="evenodd"><circle cx="43" cy="43" fill="#fff" r="43"/><path d="m47 35h6v-5h-6zm-2 2v-9h10v9zm-12-2h6v-5h-6zm-2 2v-9h10v9zm16.0736171 4v4.7139456c0 2.3122433-1.8264312 4.1907029-4.0723165 4.1907029-2.2482002 0-4.0746313-1.8784596-4.0746313-4.1907029v-4.7139456h-5.9265261v4.7139456c0 5.6715672 4.4862149 10.2860544 10.0011574 10.2860544 5.5135536 0 9.9988426-4.6144872 9.9988426-10.2860544v-4.7139456zm-2-2h9.9265261v6.7139456c0 6.7637736-5.3679553 12.2860544-11.9988426 12.2860544-6.6321341 0-12.0011574-5.5221439-12.0011574-12.2860544v-6.7139456h9.9265261v6.7139456c0 1.2200505.9437679 2.1907029 2.0746313 2.1907029 1.1287258 0 2.0723165-.970851 2.0723165-2.1907029z" fill="url(#a)" fill-rule="nonzero"/></g></svg>

<?xml version="1.0" encoding="UTF-8"?>
<svg width="86px" height="86px" viewBox="0 0 86 86" version="1.1" xmlns="http://www.w3.org/2000/svg" xmlns:xlink="http://www.w3.org/1999/xlink">
    <!-- Generator: Sketch 46.2 (44496) - http://www.bohemiancoding.com/sketch -->
    <title>ic/cohorts1</title>
    <desc>Created with Sketch.</desc>
    <defs>
        <linearGradient x1="0%" y1="0%" x2="149.460671%" y2="71.875%" id="linearGradient-1">
            <stop stop-color="#00EAF8" offset="0%"></stop>
            <stop stop-color="#6D42EF" offset="100%"></stop>
        </linearGradient>
    </defs>
    <g id="Page-1" stroke="none" stroke-width="1" fill="none" fill-rule="evenodd">
        <g id="Temp-Screen" transform="translate(-337.000000, -806.000000)">
            <g id="2" transform="translate(337.000000, 806.000000)">
                <g id="ic/cohorts1">
                    <circle id="Oval-4-Copy" fill="#FFFFFF" cx="43" cy="43" r="43"></circle>
                    <path d="M47,35 L53,35 L53,30 L47,30 L47,35 Z M45,37 L45,28 L55,28 L55,37 L45,37 Z M33,35 L39,35 L39,30 L33,30 L33,35 Z M31,37 L31,28 L41,28 L41,37 L31,37 Z M47.0736171,41 L47.0736171,45.7139456 C47.0736171,48.0261889 45.2471859,49.9046485 43.0013006,49.9046485 C40.7531004,49.9046485 38.9266693,48.0261889 38.9266693,45.7139456 L38.9266693,41 L33.0001432,41 L33.0001432,45.7139456 C33.0001432,51.3855128 37.4863581,56 43.0013006,56 C48.5148542,56 53.0001432,51.3855128 53.0001432,45.7139456 L53.0001432,41 L47.0736171,41 Z M45.0736171,39 L55.0001432,39 L55.0001432,45.7139456 C55.0001432,52.4777192 49.6321879,58 43.0013006,58 C36.3691665,58 31.0001432,52.4778561 31.0001432,45.7139456 L31.0001432,39 L40.9266693,39 L40.9266693,45.7139456 C40.9266693,46.9339961 41.8704372,47.9046485 43.0013006,47.9046485 C44.1300264,47.9046485 45.0736171,46.9337975 45.0736171,45.7139456 L45.0736171,39 Z" id="Combined-Shape" fill="url(#linearGradient-1)" fill-rule="nonzero"></path>
                </g>
            </g>
        </g>
    </g>
</svg>
